X: 19058
T: Ireland's Green Shore
R: polka
M: 2/4
K: Edorian
|:B|B2 AB|d2 BA|F/E/D- D2-|D2- DC/D/|
EA- AB|G2 E<D|E2- E2-|E2- E:|
A|Be- ef|e2 d<B|dB- B2-|B2- BA|
Be- ed|BA- Ad|B2- B2-|B2- BA|
B2 ed|B2 AF|ED- D2-|D2- DC/D/|
EA- AB|G2 E<D|E2- E2-|E2- E||

